svgs/sharp-thin/lock.svg

<svg xmlns="http://www.w3.org/2000/svg" viewBox="0 0 448 512"><!--! Font Awesome Pro 6.6.0 by @fontawesome - https://fontawesome.com License - https://fontawesome.com/license (Commercial License) Copyright 2024 Fonticons, Inc. --><path d="M112 128l0 64 224 0 0-64c0-61.9-50.1-112-112-112s-112 50.1-112 112zM96 192l0-64C96 57.3 153.3 0 224 0s128 57.3 128 128l0 64 80 0 16 0 0 16 0 288 0 16-16 0L16 512 0 512l0-16L0 208l0-16 16 0 80 0zm0 16l-80 0 0 288 416 0 0-288-80 0-16 0-224 0-16 0z"/></svg>

<svg xmlns="http://www.w3.org/2000/svg" viewBox="0 0 448 512"><!--! Font Awesome Pro 6.5.2 by @fontawesome - https://fontawesome.com License - https://fontawesome.com/license (Commercial License) Copyright 2024 Fonticons, Inc. --><path d="M112 128v64H336V128c0-61.9-50.1-112-112-112s-112 50.1-112 112zM96 192V128C96 57.3 153.3 0 224 0s128 57.3 128 128v64h80 16v16V496v16H432 16 0V496 208 192H16 96zm0 16H16V496H432V208H352 336 112 96z"/></svg>
